P2
# Synthetic occupancy grid; first image row is north.
20 16
255
0 0 0 0 0 0 0 0 0 0 0 0 0 0 0 0 0 0 0 0
0 254 254 254 254 254 254 254 254 254 254 254 254 254 254 254 254 254 254 0
0 254 254 254 254 254 254 254 254 254 254 254 254 254 254 254 254 254 254 0
0 254 254 254 254 254 254 254 254 254 254 254 254 254 254 254 254 254 254 0
0 254 254 254 254 254 254 254 254 254 254 254 254 254 0 254 254 254 254 0
0 254 254 254 254 254 254 254 254 254 254 254 254 254 0 254 254 254 254 0
0 254 254 254 254 254 254 254 254 254 254 254 254 254 0 254 254 254 254 0
0 254 254 254 254 254 254 254 254 254 254 254 254 254 0 254 254 254 254 0
0 254 254 254 254 254 254 254 254 254 254 254 254 254 0 254 254 254 254 0
0 254 254 254 254 254 254 254 254 254 254 254 254 254 0 254 254 254 254 0
0 254 254 254 254 254 254 254 254 254 254 254 254 254 0 254 254 254 254 0
0 254 254 254 254 254 254 254 254 254 254 254 254 254 254 254 254 254 254 0
0 254 254 254 254 254 254 254 254 254 254 254 254 254 254 254 254 254 254 0
0 254 254 254 254 254 254 254 254 254 254 254 254 254 254 254 254 254 254 0
0 254 254 254 254 254 254 254 254 254 254 254 254 254 254 254 254 254 254 0
0 0 0 0 0 0 0 0 0 0 0 0 0 0 0 0 0 0 0 0
